X:175
T: EIN REISLEIN AM HUTE
N: B0662A
O: Europa, Mitteleuropa, Deutschland
R: Wander -, Moral - Lied, Vergaenglichkeit
M: 3/8
L: 1/16
K: G
B2 | B2A2G2 | D2z2D2 | D2EFG^G | A4
A2 | c2B2A2 | G2F2E2 | D2E2F2 | G4
G2 | G2G2G2 | A2G2G2 | A2A2A2 | B2A2
A2 | B2B2B2 | cBAGFE | D2E2F2 | G4

@@@ Tune index: 2393
